icons/chart_line_stacked.svg

<svg width="48" height="48" viewBox="0 0 48 48" fill="none" xmlns="http://www.w3.org/2000/svg">
<path d="M6 41C6 41.5523 6.44772 42 7 42H41V40H8V39.362L17.3313 28.1645L28.6838 31.9487C29.0743 32.0788 29.5047 31.9564 29.7682 31.6402L39.7682 19.6402L38.2318 18.3598L28.6687 29.8355L17.3162 26.0513C16.9257 25.9211 16.4953 26.0436 16.2318 26.3598L8 36.2379V29.3866L17.2887 19.169L27.6583 22.9398C28.0544 23.0838 28.4984 22.964 28.7682 22.6402L38.7682 10.6402L37.2318 9.35982L27.6815 20.8201L17.3417 17.0602C16.9604 16.9215 16.533 17.0271 16.2601 17.3273L8 26.4134V7H6V41Z" fill="black"/>
</svg>

<svg
  xmlns="http://www.w3.org/2000/svg"
  width="24"
  height="24"
  viewBox="0 0 24 24"
  fill="none"
  stroke="currentColor"
  stroke-width="2"
  stroke-linecap="round"
  stroke-linejoin="round"
>
  <path d="M6 41a1 1 0 0 0 1 1h34v-2H8v-.638l9.331-11.198 11.353 3.785a1 1 0 0 0 1.084-.309l10-12-1.536-1.28-9.563 11.476-11.353-3.785a1 1 0 0 0-1.084.309L8 36.238v-6.851l9.289-10.218 10.37 3.77a1 1 0 0 0 1.11-.299l10-12-1.537-1.28-9.55 11.46-10.34-3.76a1 1 0 0 0-1.082.267L8 26.413V7H6z" />
</svg>
